X: 7355
T: Cliffs Of Moher, The
R: jig
M: 6/8
K: Adorian
|:~a3 bag|eaf ged|c2A BAG|EFG AB/c/d|
e2a bag|eaf ged|c2A BAG|EFG A3:|
|:~e3 dBA|e/f/ge dBA|G2B dBA|G2B dBd|
[1 ege dBA|e/f/ge dBA|G2B dBA|EFG A3:|
[2 e2e d2d|c2c B2B|efg age|dBG A3||

